web/icons/gps/customisation.svg

<svg width="256" height="256" viewBox="0 0 256 256" fill="none" xmlns="http://www.w3.org/2000/svg">
<path fill-rule="evenodd" clip-rule="evenodd" d="M50 0C22.386 0 0 22.386 0 50V206C0 233.614 22.386 256 50 256H206C233.614 256 256 233.614 256 206V50C256 22.386 233.614 0 206 0H50ZM221.364 106.6C215.143 106.6 209.818 102.342 207.543 96.5534C206.334 93.4805 204.955 90.4945 203.413 87.6092C200.71 82.552 201.187 76.2106 205.241 72.1545C209.858 67.534 209.857 60.0458 205.238 55.427L200.561 50.7505C195.944 46.1332 188.457 46.1345 183.842 50.7534C179.793 54.8045 173.461 55.2873 168.41 52.5884C165.515 51.0415 162.52 49.6585 159.437 48.4467C153.652 46.1729 149.4 40.8507 149.4 34.635C149.4 27.1046 143.295 21 135.765 21H120.235C112.705 21 106.6 27.1045 106.6 34.6348C106.6 40.8556 102.341 46.1801 96.5507 48.4542C93.4774 49.6613 90.4922 51.0396 87.6076 52.5819C82.5516 55.2852 76.2101 54.8101 72.156 50.756C67.5411 46.1411 60.0589 46.1411 55.444 50.756L50.756 55.444C46.1411 60.0589 46.1411 67.5411 50.756 72.156C54.8101 76.2101 55.2852 82.5516 52.5819 87.6076C51.0396 90.4922 49.6613 93.4774 48.4542 96.5507C46.1801 102.341 40.8556 106.6 34.6349 106.6C27.1045 106.6 21 112.705 21 120.235V135.765C21 143.295 27.1045 149.4 34.6348 149.4C40.8556 149.4 46.1805 153.659 48.4555 159.449C49.6634 162.523 51.0425 165.509 52.5842 168.393C55.287 173.448 54.8107 179.789 50.757 183.843C46.1415 188.458 46.1415 195.942 50.757 200.557L55.4383 205.238C60.0563 209.856 67.5437 209.856 72.1617 205.238C76.2139 201.186 82.5507 200.706 87.6045 203.408C90.4921 204.952 93.4794 206.332 96.5537 207.542C102.342 209.818 106.6 215.143 106.6 221.364C106.6 228.895 112.705 235 120.236 235H135.765C143.295 235 149.4 228.895 149.4 221.365C149.4 215.144 153.659 209.819 159.448 207.543C162.528 206.332 165.519 204.949 168.411 203.403C173.461 200.702 179.793 201.185 183.842 205.236C188.457 209.855 195.944 209.856 200.561 205.239L205.244 200.556C209.859 195.941 209.86 188.458 205.246 183.841C201.196 179.787 200.719 173.45 203.419 168.396C204.963 165.505 206.343 162.514 207.553 159.435C209.826 153.651 215.148 149.4 221.363 149.4C228.895 149.4 235 143.295 235 135.763V120.236C235 112.705 228.895 106.6 221.364 106.6ZM170.8 128C170.8 151.637 151.637 170.8 128 170.8C104.362 170.8 85.2 151.637 85.2 128C85.2 104.362 104.362 85.2 128 85.2C151.637 85.2 170.8 104.362 170.8 128Z" fill="#8D8D8D"/>
</svg>

<svg width="256" height="256" fill="none" xmlns="http://www.w3.org/2000/svg"><path fill-rule="evenodd" clip-rule="evenodd" d="M50 0C22.386 0 0 22.386 0 50v156c0 27.614 22.386 50 50 50h156c27.614 0 50-22.386 50-50V50c0-27.614-22.386-50-50-50H50Zm171.364 106.6c-6.221 0-11.546-4.258-13.821-10.047a84.99 84.99 0 0 0-4.13-8.944c-2.703-5.057-2.226-11.398 1.828-15.454 4.617-4.621 4.616-12.11-.003-16.728l-4.677-4.676c-4.617-4.618-12.104-4.616-16.719.002-4.049 4.051-10.381 4.534-15.432 1.835a85.065 85.065 0 0 0-8.973-4.141c-5.785-2.274-10.037-7.596-10.037-13.812 0-7.53-6.105-13.635-13.635-13.635h-15.53c-7.53 0-13.635 6.105-13.635 13.635 0 6.22-4.259 11.545-10.05 13.82a84.414 84.414 0 0 0-8.942 4.127c-5.056 2.703-11.398 2.228-15.452-1.826-4.615-4.615-12.097-4.615-16.712 0l-4.688 4.688c-4.615 4.615-4.615 12.097 0 16.712 4.054 4.054 4.53 10.396 1.826 15.452a84.414 84.414 0 0 0-4.128 8.943c-2.274 5.79-7.598 10.049-13.82 10.049-7.53 0-13.634 6.105-13.634 13.635v15.53c0 7.53 6.105 13.635 13.635 13.635 6.22 0 11.546 4.259 13.82 10.049a84.595 84.595 0 0 0 4.13 8.944c2.702 5.055 2.226 11.396-1.828 15.45-4.615 4.615-4.615 12.099 0 16.714l4.681 4.681c4.618 4.618 12.106 4.618 16.724 0 4.052-4.052 10.389-4.532 15.442-1.83a84.979 84.979 0 0 0 8.95 4.134c5.788 2.276 10.046 7.601 10.046 13.822 0 7.531 6.105 13.636 13.636 13.636h15.529c7.53 0 13.635-6.105 13.635-13.635 0-6.221 4.259-11.546 10.048-13.822a84.915 84.915 0 0 0 8.963-4.14c5.05-2.701 11.382-2.218 15.431 1.833 4.615 4.619 12.102 4.62 16.719.003l4.683-4.683c4.615-4.615 4.616-12.098.002-16.715-4.05-4.054-4.527-10.391-1.827-15.445a85.045 85.045 0 0 0 4.134-8.961c2.273-5.784 7.595-10.035 13.81-10.035 7.532 0 13.637-6.105 13.637-13.637v-15.527c0-7.531-6.105-13.636-13.636-13.636ZM170.8 128c0 23.637-19.163 42.8-42.8 42.8-23.638 0-42.8-19.163-42.8-42.8 0-23.638 19.162-42.8 42.8-42.8 23.637 0 42.8 19.162 42.8 42.8Z" fill="#8D8D8D"/></svg>
